X:1
T:Richard's Reminder
C:Debbie Jackson (1998)
B: Peter Barnes "English Country Dance Tunes" v.2 p.141
M:3/2
L:1/8
K:Em
|:\
"Em"B4 E2B2 d2c2 | B2AG "B"F6 B,2 |\
"C"E2FG A2G2 F2E2 | "B"^D6 E2F4 |
"Em"B4 E2B2 d2c2 | B2AG "B"F4 B,4 |\
"C"E2FG A2G2 "B7"F3E | "Em"E6 z4 z2 :|
|:\
"C"edc2 G2e2 d2cB | "D/F#"A4 d4 "G"B4 |\
"Am"c2dc "/G"B2cB "D/F#"A2G2 | "D"F2GF "C"E2FE "G/B"D4 |
"C"F2 G4 E2 "G/B"D4 | "C"F2 G4 E2 "G/B"D2d2 |\
"Am"d2cB A4- "D7"A2G2 | "G"G6 z4 z2 :|
